X: 689
T: Lugouqin shangshou
L: 1/8
M: 2/4
K: F
c c G G [I:setbarnb 1]| 
c> cG2 | 
B B c G | 
F> EC2 | 
f B c c | 
GB2G | 
B> G D C | 
B,4 |]

@@@ Tune index: 9563
